X:1
T: Sárgarépa, zöld uborka, zöld retek
L:1/8
M:4/4
K:D
S: Jobbágytelke
A,A,DE FDEF | G2 F2 E2 z2 |
FGAA BAAG | F E3 E2 z2 |
FGAA BAAF | A F3 E2 z2 |
DEED FFFE | E D3 D z2 |
W: Sárgarépa, zöld uborka, zöld retek,
W: De semmirevaló legényt szeretek.
W: Én nem bánom ha semmire való is,
W: Semmirevaló vagyok én magam is.
W:
W: Árok, árok, de mély árokba estem,
W: Rólad, babám, minden gondom levettem.
W: Úgy levettem, hogy még eszembe se jutsz.
W: Hóságodér fizessen meg a Jézus.
W: Jóságodér fizessen meg, áldjon meg,
W: Olykor-olykor rólam is emlékezz meg.
W: 
W: Új a csizmám, el akarom szaggatni,
W: Édesapám nem akarja engedni,
W: Engedd, apám, nem a te pénzed ára,
W: Édesanyám vette vásárfiába.

